assets/ai/ai-dblp-square.svg

<svg xmlns="http://www.w3.org/2000/svg" width="100%" height="100%" viewBox="-75.52 -43.52 599.04 599.04"><path d="M 48 32 C 21.5 32 0 53.5 0 80 L 0 432 C 0 458.5 21.5 480 48 480 L 400 480 C 426.5 480 448 458.5 448 432 L 448 80 C 448 53.5 426.5 32 400 32 L 48 32 z M 105.66406 96.009766 C 107.80007 96.154751 110.66797 97.912109 110.66797 97.912109 L 203.33203 154.73242 C 212.39569 160.29071 214.49414 168.12109 214.49414 168.12109 C 223.498 201.92859 222.52132 198.45356 223.49805 201.92773 L 232.23047 234.51367 L 247.31836 290.82812 C 247.3959 291.11719 247.43658 291.38672 247.48828 291.66406 C 248.85259 298.89806 241.95508 302.125 241.95508 302.125 L 224.50391 310.23828 C 224.50391 310.23828 194.21377 324.31398 142.20117 348.48828 C 134.73802 351.95605 132.64258 344.13086 132.64258 344.13086 L 99.917969 222.00195 C 97.819214 214.17333 105.28125 210.70508 105.28125 210.70508 L 130.20898 199.12109 L 130.21289 199.11914 L 103.70117 100.18359 C 102.78349 96.758065 104.00273 95.897003 105.66406 96.009766 z M 309.45117 162.78906 C 313.97225 162.86707 315.35742 168.03516 315.35742 168.03516 L 348.08203 290.16211 C 350.18078 297.99073 342.7197 301.45898 342.7207 301.45898 L 317.82812 313.0293 C 344.29604 411.80769 325.80592 342.80802 344.29688 411.81445 C 346.39445 419.64424 337.33398 414.08594 337.33398 414.08594 L 244.66992 357.26562 C 235.60626 351.70733 233.50781 343.87891 233.50781 343.87891 L 233.40625 343.46484 L 226.68945 318.33594 L 251.68555 306.64844 C 251.68555 306.64844 257.89934 302.4175 257.2168 296.1875 C 257.16394 295.91134 257.12718 295.63947 257.05078 295.35156 L 242.53711 240.95312 L 242.55859 240.9668 L 231.08789 198.17969 L 305.79883 163.67578 C 307.19774 163.02557 308.40785 162.77106 309.45117 162.78906 z"/></svg>

<svg xmlns="http://www.w3.org/2000/svg" width="100%" height="100%" viewBox="-75.52 -43.52 599.04 599.04"><path d="M48 32C21.5 32 0 53.5 0 80v352c0 26.5 21.5 48 48 48h352c26.5 0 48-21.5 48-48V80c0-26.5-21.5-48-48-48H48zm57.664 64.01c2.136.145 5.004 1.902 5.004 1.902l92.664 56.82c9.064 5.559 11.162 13.39 11.162 13.39 9.004 33.807 8.027 30.332 9.004 33.806l8.732 32.586 15.088 56.314c.078.29.119.559.17.836 1.365 7.234-5.533 10.461-5.533 10.461l-17.451 8.113s-30.29 14.076-82.303 38.25c-7.463 3.468-9.558-4.357-9.558-4.357L99.918 222.002c-2.099-7.829 5.363-11.297 5.363-11.297l24.928-11.584.004-.002-26.512-98.935c-.918-3.426.302-4.287 1.963-4.174zm203.787 66.78c4.521.077 5.906 5.245 5.906 5.245l32.725 122.127c2.099 7.829-5.362 11.297-5.361 11.297l-24.893 11.57c26.468 98.779 7.978 29.779 26.469 98.785 2.097 7.83-6.963 2.272-6.963 2.272l-92.664-56.82c-9.064-5.559-11.162-13.387-11.162-13.387l-.102-.414-6.717-25.13 24.997-11.687s6.213-4.23 5.53-10.46c-.052-.277-.089-.549-.165-.836l-14.514-54.399.022.014-11.471-42.787 74.71-34.504c1.4-.65 2.61-.905 3.653-.887z"/></svg>
